/* XPM */
/* This file can be converted to EPS by the GROMACS program xpm2ps */
/* title:   "Hydrogen Bond Existence Map" */
/* legend:  "Hydrogen Bonds" */
/* x-label: "Time (ps)" */
/* y-label: "Hydrogen Bond Index" */
/* type:    "Discrete" */
static char *gromacs_xpm[] = {
"1001 221   2 1",
"   c #FFFFFF " /* "None" */,
"o  c #FF0000 " /* "Present" */,
/* x-axis:  0 100 200 300 400 500 600 700 800 900 1000 1100 1200 1300 1400 1500 1600 1700 1800 1900 2000 2100 2200 2300 2400 2500 2600 2700 2800 2900 3000 3100 3200 3300 3400 3500 3600 3700 3800 3900 4000 4100 4200 4300 4400 4500 4600 4700 4800 4900 5000 5100 5200 5300 5400 5500 5600 5700 5800 5900 6000 6100 6200 6300 6400 6500 6600 6700 6800 6900 7000 7100 7200 7300 7400 7500 7600 7700 7800 7900 */
/* x-axis:  8000 8100 8200 8300 8400 8500 8600 8700 8800 8900 9000 9100 9200 9300 9400 9500 9600 9700 9800 9900 10000 10100 10200 10300 10400 10500 10600 10700 10800 10900 11000 11100 11200 11300 11400 11500 11600 11700 11800 11900 12000 12100 12200 12300 12400 12500 12600 12700 12800 12900 13000 13100 13200 13300 13400 13500 13600 13700 13800 13900 14000 14100 14200 14300 14400 14500 14600 14700 14800 14900 15000 15100 15200 15300 15400 15500 15600 15700 15800 15900 */
/* x-axis:  16000 16100 16200 16300 16400 16500 16600 16700 16800 16900 17000 17100 17200 17300 17400 17500 17600 17700 17800 17900 18000 18100 18200 18300 18400 18500 18600 18700 18800 18900 19000 19100 19200 19300 19400 19500 19600 19700 19800 19900 20000 20100 20200 20300 20400 20500 20600 20700 20800 20900 21000 21100 21200 21300 21400 21500 21600 21700 21800 21900 22000 22100 22200 22300 22400 22500 22600 22700 22800 22900 23000 23100 23200 23300 23400 23500 23600 23700 23800 23900 */
/* x-axis:  24000 24100 24200 24300 24400 24500 24600 24700 24800 24900 25000 25100 25200 25300 25400 25500 25600 25700 25800 25900 26000 26100 26200 26300 26400 26500 26600 26700 26800 26900 27000 27100 27200 27300 27400 27500 27600 27700 27800 27900 28000 28100 28200 28300 28400 28500 28600 28700 28800 28900 29000 29100 29200 29300 29400 29500 29600 29700 29800 29900 30000 30100 30200 30300 30400 30500 30600 30700 30800 30900 31000 31100 31200 31300 31400 31500 31600 31700 31800 31900 */
/* x-axis:  32000 32100 32200 32300 32400 32500 32600 32700 32800 32900 33000 33100 33200 33300 33400 33500 33600 33700 33800 33900 34000 34100 34200 34300 34400 34500 34600 34700 34800 34900 35000 35100 35200 35300 35400 35500 35600 35700 35800 35900 36000 36100 36200 36300 36400 36500 36600 36700 36800 36900 37000 37100 37200 37300 37400 37500 37600 37700 37800 37900 38000 38100 38200 38300 38400 38500 38600 38700 38800 38900 39000 39100 39200 39300 39400 39500 39600 39700 39800 39900 */
/* x-axis:  40000 40100 40200 40300 40400 40500 40600 40700 40800 40900 41000 41100 41200 41300 41400 41500 41600 41700 41800 41900 42000 42100 42200 42300 42400 42500 42600 42700 42800 42900 43000 43100 43200 43300 43400 43500 43600 43700 43800 43900 44000 44100 44200 44300 44400 44500 44600 44700 44800 44900 45000 45100 45200 45300 45400 45500 45600 45700 45800 45900 46000 46100 46200 46300 46400 46500 46600 46700 46800 46900 47000 47100 47200 47300 47400 47500 47600 47700 47800 47900 */
/* x-axis:  48000 48100 48200 48300 48400 48500 48600 48700 48800 48900 49000 49100 49200 49300 49400 49500 49600 49700 49800 49900 50000 50100 50200 50300 50400 50500 50600 50700 50800 50900 51000 51100 51200 51300 51400 51500 51600 51700 51800 51900 52000 52100 52200 52300 52400 52500 52600 52700 52800 52900 53000 53100 53200 53300 53400 53500 53600 53700 53800 53900 54000 54100 54200 54300 54400 54500 54600 54700 54800 54900 55000 55100 55200 55300 55400 55500 55600 55700 55800 55900 */
/* x-axis:  56000 56100 56200 56300 56400 56500 56600 56700 56800 56900 57000 57100 57200 57300 57400 57500 57600 57700 57800 57900 58000 58100 58200 58300 58400 58500 58600 58700 58800 58900 59000 59100 59200 59300 59400 59500 59600 59700 59800 59900 60000 60100 60200 60300 60400 60500 60600 60700 60800 60900 61000 61100 61200 61300 61400 61500 61600 61700 61800 61900 62000 62100 62200 62300 62400 62500 62600 62700 62800 62900 63000 63100 63200 63300 63400 63500 63600 63700 63800 63900 */
/* x-axis:  64000 64100 64200 64300 64400 64500 64600 64700 64800 64900 65000 65100 65200 65300 65400 65500 65600 65700 65800 65900 66000 66100 66200 66300 66400 66500 66600 66700 66800 66900 67000 67100 67200 67300 67400 67500 67600 67700 67800 67900 68000 68100 68200 68300 68400 68500 68600 68700 68800 68900 69000 69100 69200 69300 69400 69500 69600 69700 69800 69900 70000 70100 70200 70300 70400 70500 70600 70700 70800 70900 71000 71100 71200 71300 71400 71500 71600 71700 71800 71900 */
/* x-axis:  72000 72100 72200 72300 72400 72500 72600 72700 72800 72900 73000 73100 73200 73300 73400 73500 73600 73700 73800 73900 74000 74100 74200 74300 74400 74500 74600 74700 74800 74900 75000 75100 75200 75300 75400 75500 75600 75700 75800 75900 76000 76100 76200 76300 76400 76500 76600 76700 76800 76900 77000 77100 77200 77300 77400 77500 77600 77700 77800 77900 78000 78100 78200 78300 78400 78500 78600 78700 78800 78900 79000 79100 79200 79300 79400 79500 79600 79700 79800 79900 */
/* x-axis:  80000 80100 80200 80300 80400 80500 80600 80700 80800 80900 81000 81100 81200 81300 81400 81500 81600 81700 81800 81900 82000 82100 82200 82300 82400 82500 82600 82700 82800 82900 83000 83100 83200 83300 83400 83500 83600 83700 83800 83900 84000 84100 84200 84300 84400 84500 84600 84700 84800 84900 85000 85100 85200 85300 85400 85500 85600 85700 85800 85900 86000 86100 86200 86300 86400 86500 86600 86700 86800 86900 87000 87100 87200 87300 87400 87500 87600 87700 87800 87900 */
/* x-axis:  88000 88100 88200 88300 88400 88500 88600 88700 88800 88900 89000 89100 89200 89300 89400 89500 89600 89700 89800 89900 90000 90100 90200 90300 90400 90500 90600 90700 90800 90900 91000 91100 91200 91300 91400 91500 91600 91700 91800 91900 92000 92100 92200 92300 92400 92500 92600 92700 92800 92900 93000 93100 93200 93300 93400 93500 93600 93700 93800 93900 94000 94100 94200 94300 94400 94500 94600 94700 94800 94900 95000 95100 95200 95300 95400 95500 95600 95700 95800 95900 */
/* x-axis:  96000 96100 96200 96300 96400 96500 96600 96700 96800 96900 97000 97100 97200 97300 97400 97500 97600 97700 97800 97900 98000 98100 98200 98300 98400 98500 98600 98700 98800 98900 99000 99100 99200 99300 99400 99500 99600 99700 99800 99900 100000 */
/* y-axis:  0 1 2 3 4 5 6 7 8 9 10 11 12 13 14 15 16 17 18 19 20 21 22 23 24 25 26 27 28 29 30 31 32 33 34 35 36 37 38 39 40 41 42 43 44 45 46 47 48 49 50 51 52 53 54 55 56 57 58 59 60 61 62 63 64 65 66 67 68 69 70 71 72 73 74 75 76 77 78 79 */
/* y-axis:  80 81 82 83 84 85 86 87 88 89 90 91 92 93 94 95 96 97 98 99 100 101 102 103 104 105 106 107 108 109 110 111 112 113 114 115 116 117 118 119 120 121 122 123 124 125 126 127 128 129 130 131 132 133 134 135 136 137 138 139 140 141 142 143 144 145 146 147 148 149 150 151 152 153 154 155 156 157 158 159 */
/* y-axis:  160 161 162 163 164 165 166 167 168 169 170 171 172 173 174 175 176 177 178 179 180 181 182 183 184 185 186 187 188 189 190 191 192 193 194 195 196 197 198 199 200 201 202 203 204 205 206 207 208 209 210 211 212 213 214 215 216 217 218 219 220 */
"                                                                                                                                                                                                                                                                                                                                                                                                                                                                                                                                                                                                                                                                                                                                                                                                                                                                                                                                                                    oo oooooo ooooooooo                                 o o ooo ooo    o ",
"                                                                        o                                                                                                                                                                                                                                                                                                                                                                                                                                                                                                                                                                                                                                                                                                                                                                                                                                                                                                                                                                ",
"                               oooo                                                                                                                                                                                                                                                                                                                                                                                                                                                                                                                                                                                                                                                                                                                                                                                                                                                                                                                                                                                                      ",
"                                                                                                                                                                                                                                                                                                                                                                                                                                                                                                                                                                                                                                                                                                                                                                                                                                                                                                                                                                                        ooooooooooooooooooooooooooooo                    ",
"                                                                          o                                                                                                                                                                                                                                                                                                                                                                                                                                                                                                                                                                                                                                                                                                                                                                                                                                                                                                                                                              ",
"                                                                                                                                                                                                                                                                                                                                                                                             o                                                                                                                                                                                                                                                                                                                                                                                                                                                                                                                                                                                                                                           ",
"                                                                                                                                                                                                                                                                                                                                                                                                                 o                                                                                                                                                                                                                                                                                                                                                                                                                                                                                                                                                                                                                       ",
"                                                                 o                                                                                                                                                                                                                                                                                                                                                                                                                                                                                                                                                                                                                                                                                                                                                                                                                                                                                                                                                                       ",
"                                                                                                                                                 o                                                                                                                                                                                                                                                                                                                                                                                                                                                                                                                                                                                                                                                                                                                                                                                                                                              o                                        ",
"                                                                                                                                             ooo  o  oo  oo o o                                                                                                                                                                                                                                                                                                                                                                                                                                                                                                                                                                                                                                                                                                                                                                                                                                                                          ",
"                                                                                                                                                                                                                                                                                                                                                                                                                                                                        oo                                                                                                                                                                                                                                                                                                                                                                                                                                                                                                                                                               ",
"                                                                                                                                                                                                                                                                                                                                                                                                                                                                                                                                                                                                oo                                                                                                                                                                                                                                                                                                                                                                                                                                       ",
"                                                                                                                                                                                                                                                                                                                                                                                                                                                                                                                                                                                 o                                                                                                                                                                                                                                                                                                                                                                                                                                                       ",
"                                                                                                                                                o  oo o    o oooo                                                                                                                                                                                                                                                                                                                                                                                                                                                                                                                                                                                                                                                                                                                                                                                                                                                                        ",
"                                                                                                                                                                                                                             o                                                                                                                                                                                                                                                                                                                                                                                                                                                                                                                                                                                                                                                                                                                                                                                                           ",
"                                                                                                                                                                                                                               ooo                                                                                                                                                                                                                                                                                                                                                                     oo                                                                                                                                                                                                                                                                                                                                                                                                                                ",
"                                                                                                                                                                                                                                                                          o                                                                                                                                                                                                                                                                                                                                                                                                                                                                                                                                                                                                                                                                                                                                                              ",
"                                                                                                                                                                                                                                                                                                                                                                                                                                                                                                                                                                                                         o                                                                                                                                                                                                                                                                                                                                                                                                                               ",
"                                                                                                                                                                                                                                                                                                                                                                                                                                                                                                                                                                                                           o                                                                                                                                                                                                                                                                                                                                                                                                                             ",
"                                                                                                                                                                                                                               o  oo                                                                                                                                                                                                                                                                                                                                                                                                                                                                                                                                                                                                                                                                                                                                                                                                     ",
"                                                                                                                                                                                                                                                                                                                                                                                                                                                     o                                                                                                                                                                                                                                                                                                                                                                                                                                                                                                                                                                                   ",
"                                                                                                                                o                       o                                                                                                                                                                                                                                                                                                                             o                                                                                                                                                                                                                                                                                                                                                                                                                                                                                                                                                  ",
"                                                                                                                                                                                                                                                                                                                                                                                                                                                                           o                                                                                                                                                                                                                                                                                                                                                                                                                                                                                                                                                             ",
"                                                                                                                                                                                                                                                                                                                                                                                                                                                                                                                                                                                                                                                                                                                                                                                                                                                                                                          o                                                                                                                              ",
"                                                                                                                                                                                                                                                                                                                                                                                                                                                                                                                                                                                                                                                                                                                                                                                                                                                                                                               o                                                                                                                         ",
"                                                                                                                                                                                                                                                                                                                                                                                                                                                                                                                                                                                                                                                                                                                                                                                                                                                                                                                                    o                                                                                                    ",
"                                                                                                                                                                                                                                                                                                                                                                                                        ooooo                               o               o   o       ooooooooooo                                                                                                                                                                                                                                                                                                                                                                                                                                                                                                                                                      ",
"                                                                                                                                                                                                                                                                                                                                                                                                                                            oooooooooooooooooooooooooo                                                                                                                                                                                                                                                                                                                                                                                                                                                                                                                                                                   ",
"                                                                                                                                                                                                                                                                                                                                                                                                                                                                                                                                                                                                                                               ooo o                                                                                                                                                                                                                                                                                                                                                                                     ",
"                                                                                                                                                                                                                                                                                                                       o                                                                                                                                                                                                                                                                                                                                                                                                                                                                                                                                                                                                                                                                                                                 ",
"                                                                                                                                                                                                                                                                             oo     oo oooo            o                                          o       oo oo     oo o oo     oo oo  oo ooooooo            o       oo           oooooooooooooooooooooooooooooooooooooo                    o                                                                                                                                                                                                                                                                                                                                                                                                                                                                                                                                            ",
"                                                                                                                                                                                                                                                                             oo      oo  o            ooo                          oo o            ooo        oo      o    ooooo  o o o  o       o    ooooooo oo       o                                                oooooooooooo ooo ooooo oo  o                                                                                                                                                                                                                                                                                                                                                                                                                                                                                                                                     ",
"                                                                                                                                                             o                                                                                         oo                                                                     o                                                                                                                      o                        o       oo                                                                                                                                                         o                                                     o      o                                           o                                                                                                                                                                                                                                                                              ",
"                                                                                                                                                                                                                                                                                                                                                               o               o                                                                                                                                                                                                                                                                                                                             o      o                                                                                 o                                                                           o                                                  o                                    o                                                              ",
"                                                                             o                                                                                                                                                                                                                                                                                                                                                                                                                                                                                                                                                                                                                                                                                                                                                                                                                                                                                                                                                           ",
"                                                                       ooo    ooo                                                                                                                                                                                                                                                                                                                                                                                                                                                                                                                                                                                                                                                                                                                                                                                                                                                                                                                                                        ",
"                                                                                                                                                                                                                                                                                                                                                                                                                                                                                                                                                                                                                                                                                                                                   o  o     o   oo              o    ooooo   oooo     oo    oo      o   o         oo ooooo                                                                                                                                                                                                               ",
"                                                                                                                                                                                                                                                                                                                                                                                                                                                                                                                                                                                                                                                                                                                        o             o         o                              o                                                o                     ooooo o   oo    o    ooo o                                                                                                                                               oo        ",
"                                                                                                                                                                                                                                                                                                                                                                                                                                                                                                                                                                                                                                                                                                                                o                                                                                                                                                                                                                                                                                                       o",
"                                                                                                                                                                                                                                                                                                                                                                                                                                                                                                                                                                                                                                                                                                                                                                                                                                                                                                                                                                                o                                                        ",
"                                                                                                                                                                                                                                                                                                                                                                                                                                                                                                                                                                                               o                                                                                                                                                                                                                                                                                                                                                                                                                                         ",
"oooooooooooooooooooooooooooooooooooooooooooooooooooooooo  o                                       o    o                                          o o           ooooooo  oo                                           oooooooooooooooooooooooo ooooooo ooooooooooooooooooo ooooooooo ooooooooooooooooooooooooooooooooooooooooooooooooooo o oooooooooooooooooooooo oooo ooooooooooo ooooooooo ooooo  o o      o    o    o     o   o             o      o oo    o                                      o                                                                                                                                                                                                 o                               oooooooooooooooooooooooooooooooooooooooooooooooooooooooooo ooooo                                                                                                                                                o ooooooooooooo    o   o                      o                                   ",
"                                                      o oooooooooo        o ooooooooooooooooooo oooooooooooooooooooooooooooooooooooooooooooooooooooooooooooooooo     o                                o                        o                            o           o                  o  o o      o                                     o    o         o    o oo   o          o o    o     o oooooooooooooooo ooooooooooooooooooooooooooooo ooooooooooooo ooooooooooooooooooooooooooooooooooooooooooooooo ooooooooooooooo                                      o                                                                                                                          o oooo  ooo ooooo oo  oo oooo  o                     o     o                                            oooo  ooooo ooooooo    o   o     o  o                                       oooo                                      o                   o ooooo       o       oooooooooo oo     ooooooooooooooooooooooooooooooooo  o            ",
"                                                                                                                                                                                                                                                                                                                                                                                                                                                                                                                                                                                                                                                                                                                                                                                                                                o             o oo  oooooooooo o ooooooooooooo                                                                                                                                                           ",
"                                                                                                                                                                                                                                                                                                                                                                                                                                                                                                                                                                                                                                                                                                                                                                                                                                 o              oo            o o o oo  oo                                                                                                                                                               ",
"oo   ooo ooooo   o      o    o                o o      ooooooooooo        o ooooooooooooooooooo oooooooooooooooooooo oooo oooooooooooooooooooooooooooooooooooooo       oo                                              o  o     oo          o     oo    oo o  o  o   o      o     o                                     o      ooo  o o oo      o        o o   o     o                     oo     ooooooooooooooooo oooooooooooooooooooooooooooooooooooooooooooooooooooooooooooooooooooooooo ooooooooooooooooooooooooooo ooooo                                      o                                                                                                                     o    o   oo  ooo o   o oo oo  oooo             o oo    oo  o ooo  o o   o oo  o o  ooo ooo      o    o       oo        oooooo o    o o  oo    o  o                                      oooo                                                             oo oo      o  o  o  o oo  oo o o       o o oooooo ooooooooooo   ooo   o               ",
" ooooooooooooooooooooooooooooooooooooooooooooo ooooooooo      o  o         o  oo      o o  o  oo      o  o          oo   o o         oo    o     o        o    oooooooo  oo                                             oo ooooooooooooooooooooooo ooooooooooooooooooooooo ooooo ooooooooooo ooooooooooooooooooo ooooooooooooooooooooooo oooooooooooooooooooooooooooooooooooooooooooooooooooooooooo         o                 o         o                 o      oo      o   o  o     o     oo          o  o  oo   o    ooo   o                                                                                                                                                                 oo o  o   oo  o o oo o oo o o           oooooooo ooooo o oo ooooooooooo ooo ooo oooo o  oooooooooo ooooo o o     ooo  oo ooo  o     o  oooo o oo     oo   ooo              o       oo                                                              o o  oooooooooooooo  o   oo       oo  ooo   o   oo oooo      ooo o oooo oo    o       ",
"                                                                                                                                                                                                                                                                                                                                                                                                                                                                                                                                                                                                                                                                                                                                                                                                                                oo                o o          o                                                                                                                                                                         ",
"                                                                                                                                                                                                                                                                                                                                                                                                                                                                                                                                                                                                                                                                                                                                                                                                                                o               oooo              oooo ooo                                                                                                                                                               ",
"ooooooooooooooooooooooooooooooooooooooooooooooooooooooooooooooooooooooooooooooooooooooooooooooooooooooooooooooooooooooooooooooooooooooooooooooooooooooooooooooooooooooooooooooooooooooooooo ooooooooooooooooooo oooooooooooooooooooooooooooooooooooooooooooooooooooooooooooooooooooooooooooooooooooooooooooooooooooooooooooooooooooooooooooooooooooooooooooooooooooooooooooooooooooooooooooooooooooooooooooooooooooooooooooooooooooooooooooooooo ooooooooooooooooooooooooooooooooooooooooooooooooooooooooooooooooooooooooooooooooooooooooooooo ooooo oo oo oooooooo oooo oooo  oo                ooo oooooooooooooooooooooooooooooooooooooooooooooooooooooooooooooooooo o oooo o oooooooooooooooooooo ooooooooooooooooooooooo  ooo ooooooooooooooooooooooooooooooooo oooooooooooooooooooooooooooooooooooooooooooooooooooooooooooooooooooooooo oooooooooooooooooooooo oooooooooooo ooooooooooooooooooooooooooooooooooooooooooooooooooooooooooooooooo oooooooo ooooooo oooooooooooooooooooooooo oooooooooooooooooo oooooooo oooo ooooooo oo",
"         oo  o     o o  o     o o  o    o oo oo o  ooooooo  oooo o o o o  oo  oo oo o ooo  oooo o o  oo oo       ooo     o  o   o    o oo oo ooo                                      o  o   oo    o             ooo  oo  oo  o     o  o   oooo oo o ooooo oooooo  oo  oo  o  o o  oo  ooooo  o    o      oo o                o                                                                                                                                               o     o                                             o o       o                             o                        o o o          o            o  o  o  o       oo    oo    o o    oo               o   o   oooooo  ooooo ooooooooooooooo ooooo o   ooooooo oo ooooo oooooo o oooooooooooooooooooooooooo  ooooooooooooooo   o o ooooooo ooooo o ooo oooo ooo ooooooooooo oooo oooooooo oo    oooo oooo     o        o          o  o          o o        o     o    oooo o oo        ooooo o oo  o o   ooo   ooo  oooo ooooooo ooo  oo ooo   o  o     o   ",
"                                                                                                                                                                                                                                                                                                                                                                                                                                                                                                                                                                                                                                                                            o  oo                                                                                                       o                                                                                             o oooooooooooooooooo  oooooo oooooo  oo o    o   o  ooooooooo        oo    o    o             oo oooo                          o      oooo oooo o  ",
"                                                                                                                                                                                                                                                                                                                                                                                                                                                                                                                                                                                                                                                                                                                                                                                                                                                                                                                                 o                                                                                                       ",
"                                                                                                                                                                                                                                                                                                                                                                                                                                                                                                                   o    o                                                                                                                                                                                                                                                                                                                                                                                                                                                                                                                ",
"       o    o oo o    oo   ooo      o oo                        o o     oo                  o  o          o    oo     o      o o  o                     o    o        o o  o o o    o   o   o  o o  oo   oo    oo   oo  o   oo   o             o                 o       o   o   o   o      o        o o    o    o  oo  o   o    o       ooo     oo     o o   ooo     o oo   o o o  ooo       o  o  o         oo      o o            oo ooooooooooooooo o   o    oo o o oo   o o        oo o  oo      o       o  o o  oo o  o ooo    oooooo  oooo oooo ooooooooo o o o ooo o  oooo o             o      oooo ooooo    oo o oo o oo oo o  o  ooo   o  o  o         o  ooo oo  oo ooo      o                                                                                                                                                                                               oo ooo ooo   o ooo  oo o   oo  o   o o  oooo  o  ooo  oo o    o       oo o                oo                        o           oo    o  o   o o",
" ooo ooo               oo                   o   oo ooo   o         ooooooo  ooooooooooooooooooooooo o oooooooo oo ooooooooo o      oooo oooooo o                              ooooooooooooooooooooooo        o   ooooooooooooooooo ooo oooooo oo   o oooooooo ooooo    o    o    oo      o oo ooooooooooooooooo  ooo  o                                                                                                                           o                      oo   o   ooooooo   o o                                  oooo ooooooooooooooooooooooooooooooooooo  oooooo  oo  ooooo  oooooooo o        oo        oo oooo o ooooooooooooooooooooooooooo ooooooooooo ooo     oo oooooooooooooooooo oooooooooooooooo oooooooooooooooooooooooooooooooooooooooooooooooooooooo ooooooooo ooooooooooooooooooooooooooooooo   oooooooo   ooooooooo    oo     o  o            ooooooooooooo  ooooooo o  oooooooooooooo  oooooo o  o      o    ooooo o   oooooo ooooooo  o  ooooooo oooo oooo oo o oooooooooo oooooooooo      o  ooooooo oo",
"                                                                                                                                                                                                                                                                                                                                                                                                                                                                                                                                  o  o          oo oo o         o oo                            o  o           o       o oooooo                                                                                          o                                                                                                                                                                                                                                                                                                               ",
"  o   o  ooo oo   o ooooo oo ooo   o o     o   o     o    oo       oo   o oo  o ooo  ooo     o  ooo o o ooo oooooo ooo ooooo     o o ooo o oo     o  o  o oo oo  o  oooo o ooo   o  oo   ooo oo oo oo oooooooo      oo ooooooo o oo oooooo oooo      o ooo  o oo o oooo oooo oooooooo oo  ooo o       oo o          o                   o                                                                                      o        o                           oo oo   o oo o      ooo      oo          o                 ooo      oo  oo          o  oo  o       o  oo  o o o ooo oooooooo    o  ooo       o o  o     o  oo   oo ooo ooo o  o o ooo oooooooo o  o ooooooo ooo       o     o                                                                                                                                     o                                                o o  oo     o  oo     oo o ooo   oooo  o ooooo                oo    o          o  o       o oo  o          o o oo   oo oo   o ooooooo  oo  oooooo ",
"                                                                   ooooooo ooooo                                                                                                                             ooooooo                                                                                                                                                                                                                                                                                                                                                                                                          o   oo  oooooo oooooo     ooo oooo     oooo                                                                                                                                                                                                                                                                                                                                                                ",
"                                                                                                                                                                                                                                                                                                                                                                                                                                                                                                                                  o                                                                                                                                                                                                                                                                                                                                                                                                                                                                                                      ",
"                                                                                                                                                                                                                                                                                                                                                                                                                                                                                                                                    o                                                                                                                                                                                                                                                                                                                                                                                                                                                                                                    ",
"                                                                                                                                                                                                                                                         o   oooooo                o       oo oo o                                                                                                                                                                                                                                                                                                                                                                                                                                                                                                                                                                                                                                                                                                                                       ",
"                                                                                                                                                                                                                                                                                                                                      o                                               o           o                                                                                                                                                                                                                                                                                                                                                                                                                                                                                                                                                                                                                                      ",
"                                                                                                                                                                                                                                                                                                               o     o           o                                                                                                                                                                                     o        o        o                                                                                                                                                                                                                                                                                                                                                                                                                                                              o oo                             ",
"                                                                                                                                                                                                                                                                                                                                                                                                                                                                                                                                                                                                                                                                                                                                                                                                                                                                                                                                                                                                                             o           ",
"                                                                                                                                                                     o  o  ooo    o       o o o        o   oo o    o      oo      o  o                                                                                                                                                                                                                                                                                                                                                                                          ooooooooooooooo          oo    ooo   oooo  o    oo ooo o                                                                                                                                                                                             o                                                                                                                                                   ",
" ooo                                                                                                                                                                               o    oo o o oo oo oo      o  o                                                                                                                                                                                                                                                                                                                                                                                                  oo  ooooooooo               o oo ooooo  oooo   o o    oo oo o  o                                                                                                                                                                                                   oo                                                                                                                                                 ",
"      o oooooo    ooooo oooo oo oooooo  ooo  oo   o  o ooo oo ooooo                ooo o ooooooo o o  o  oooo oo oo      o                                                                                                                                                                                                                                                                                                                                                                                                                                                                                                                                                                                                                                                                                                                                                              oooooooooooooooooooooooooo oooooooooooooooooooooooooooooooooooooooooooooooooooo                                                                  ",
"                                                                                                                                                                                                                                                                                                                                                                                                                                                                                                                                                                                                                                                                                                                                                                           o                                                                                                                                                     o       o                                                                                               ",
"                                                                                                                                                                                                                                                                                                                                                                                                                                                                                                                                                                                                                                                                                                                                   o                                                                                                                                                                                                                                                                                                     ",
"                                                                                                                                                                                                                                                                                                                                                                                                                                                                                                                                                                                                                                                                                                                                 o      o                                                                                                                                                                                                                                                                                                ",
"                                                                                                                                                                                                                                                                                                                                                                                                                                                                                                                                                                                                                                                                                                                     o                                                                                                                                                                                                                                                                                                                   ",
"                                                                                                                                                                                                                                                                                                                                                                                                                                                                                                                                                                                                                                                                                                   oo oo oo  oo o ooo                                                                                                                                                                                                                                                                                                                    ",
"       o               o                    o                      o     oo           o o           o  o         o                                                                                                                                                                                                                                                                                                                                                                                                                                                                                                                                                                                                                                                                                                                                                                                                                                                                                                                       ",
"                                                o                                                         o                                                                                                                                                                                                                                                                                                                                                                                                                                                                                                                                                                                                                                                                                                                                                                                                                                                                                                                              ",
"                                                                                                                                                                                     o                                                                                                                                                                                                                                                                                                                                                                                                                                                                                                                                                                                                                                                                                                                                                                                                                                                   ",
"                                                                                                                                                                                     o                                                                                                                                                                                                                                                                                                                                                                                                                                                                                                                                                                                                                                                                                                                                                                                                                                                   ",
"                                                                                                                                                                                                                                                                                          o  o                                                                                                                                                                                                                                                                                                                                                                                                                                                                                                                                                                                                                                                                                                                                           ",
"                                                                                                                                                                                                                                                                   ooooooooooooooo ooooooo                 o                                                                                                                                                                                                                                                                                                                                                                                                                                                                                                                                                                                                                                                                                                                             ",
"                                                                       o                   o                                                                                                                                                                                                                                                                                                                                                                                                                                                                                                                                                                                                                                                                                                                                                                                                                                                                                                                                             ",
"                                                                                                                                                                                                                                                                                                                                                                                                                                                                                     o   o o                                                                                            ooo     o    o                                                                                                                                                                                                                                                                                                                                                                             o                                                     ",
"                                                                                                                                                                                                                                                                                                                                       o                                                                                                                                                                                                                                                                                                                                                                                                                                                                                                                                                                                                                                                                                                 ",
"                                                                                                                                                                                                                                                              o  o  o          o          o o                                                                                                                                                                                                                                                                                                                                                                                                                                                                                                                                                                                                                                                                                                                                            ",
"                                                                                                                                                                                                                                                           o                                                                                                                                                                                                                                                                                                                                                                                                                                                                                                                                                                                                                                                                                                                                                                             ",
"                                                                                                                                                                                                                                                           o                                                                                                                                                                                                                                                                                                                                                                                                                                                                                                                                                                                                                                                                                                                                                                             ",
"                                                                                                                                                                                                                                                                    o                     o                                                                                                                                                                                                                                                                                                                                                                                                                                                                                                                                                                                                                                                                                                                                              ",
"                                                                                                                                                                                                                o                o                  o                                                                    o  o                   o o    o o      o  o oooo  o           o             o oo oooo    oo      o o  o                                                                                                                                                                                                                                                                                                                                                               o                                                   o o      o      oo     o o             o                                                o                                                                                             ",
"                                                                                                                                                                                                                                         o                                                                                                                                                                                                                                                                                                                                                                                                                                                                                                                                                       o                                           o    o         o o     o      o                                                                                                          o                                                  ",
"                                                                                                                                                          o                                                                                                                                                    o     o                       o                                o  o oo o   o        o                          o oo                                                                                         oo                                                                                                                                                                                                                                                                                                o                      o                                                                          o  o o o                                                                    o                             ",
"        ooooooo ooo ooo ooo   o oo o o o ooo oooo oo oooooooooooooo               o      oo        o        o oooo     o                                              o                                                                                                                                                                                                                                                                  o                           o                            o          o                                       o                                      ooo       o   oo oo    oo  oo o                                                                                                                                                                                                                                                                                                                                                                                                              ",
"                                                                                                                                                                                                                                                                                                                                                                                                                                             oo o                   o  oo oo     o                                                o  o                                    o          o                  oo           o                                                                                                                                                                                                                                                                                                                                                                                                                   ",
"                                                                                                                                                                                                                                                                                                                                                                                                                                       oo                                                                                                                                                                                                                                                                                                                                                                                                                                                                                                                                                                                                ",
"                                                                                                                                                                                                                                                                                                                                                                                                                                     o  o  o                                                                                                                                                                                                                                                                                                                                                                                                                                                                                                                                                                                             ",
"                                                                                                                                                                                                                                                                                                o                                                                                                                                                                                                                                                                                                                                                                                                                                                                                                                                                                                                                                                                                                                                        ",
"                                                                                                                                                                                                                                                                                                      o                                                                                                                                                                                                                                                                                                                                                                                                                                                                                                                                                                                                                                                                                                                                  ",
"                                                                                                                                                                                                                                                                                                                     oo                                                                                                                                                                                                                                                                                                                                                                                                                                                                                                                                                                                                                                                                                                                  ",
"       oo            o    o    o  o   oo                      o                                               o                ooo              ooooooooooooooooooo o oo oooo                         oo oooo                                                                                                  o ooooo ooooooooooooooooooooooo ooo ooooooooooooooooooo ooooooooooooooooooooooooooo ooooooooooooooooooooooooooooooooo o   ooo o o oo   oo oooooo oooo                               ooo oooooooooooooooooooooooo                                                                                          o                                                                                                                                                                                                                                                                                                                                                                                                               ",
"                                                                                                                                                                                                                                                                                                                                     o o  oo oo ooo ooooooooooooo oooooooo oooooooooooooooooooo  oooooooooooooooooooooooo ooooo                                   o                                                                                                                                                                                                                                                                                                                                                                                                                                                                                                                                                                      ",
"                                                          oo                                                                                                                                                                                                                                                                                                                                                                                                                                                                                                                                                                                                                                                                                                                                                                                                                                                                                                                                                                             ",
"      o                                                                                                                                                                                                                                                                                                                                                                                                                                                                                                                                                                                                                                                                                                                                                                                                                                                                                                                                                                                                                                  ",
"                                                                                                                                                                                                                                                                                                                                                                                                                                                                                                                                                                                                                                    o     ooo oooo                                                                                                                                                                                                                                                                                                                                                                                       ",
"                                                                                                                                                                                                                                                                                                                                                                                                                                                                                                                                                                                                                                      o              o                                                                                                                                                                                                                                                                                                                                                                                   ",
"                                                                                                                                                                                                                                                                                                       o                                                                                                                                                                                                                                                                                                                                                                                                                                                                                                                                                                                                                                                                                                                                 ",
"                                                                                                                                                                                                                                                                                                   oo                                                                                                                                                                                                                                                                                                                                                                                                                                                                                                                                                                                                                                                                                                                                    ",
"                                 o o                   o                                                                                                                          o    oo                                            o                    o                                                                                                                                              o                       o                                   o                                       o      o                                                                                                                        o                           oo ooo            o   o o oooo    o oo    ooo o  o o       ooo         ooo  o o    o  o o oo        o  o  o   o o oo    o   o o o ooooo  o   ooo ooo  oo   o ooo o  o      o  oo          o o o  o   o  oo oooo    o oooo    oo oo o  ooooo  ooo      oo   o ooo    oo oo   oo                o o ooo  ooo  o oooo oooooooo   ooooooo ooo o  ooo oo  ooo oo     ",
"                                                                                                                                                                                                                                                                                                                                                                                                                                                                                                                                                                                                                                                                                                                                                                                                                                                                                                                                      o                                   o                                                o             ",
"                                       o                                                                                                                                                                                                                                                                                                                                                                                                                                                                                                                                                                                                             o                                                                                                                                                                                                                                                                                                                                                                                   ",
"                                                                                                                                                                                                                                                                                                                                                                                                                                                                                                                                                                                                                                                                        o          ooo o                 o                                            o                          o                              o                         o                              o      o                   o                      o         o         o  o    ooo oo o  ooo  o                                              o                   ",
"                                                                                                                                                                                                                                                                                                                                                                                                                                                                                                                                                                                                                                                                                 o oooooooooo oo ooo  ooo oooo oooooo ooooo  ooo  oo     o oooo oooooo o o oo oooooooooooo oooo   oooooo ooo ooooooooooooo  oooo oo oooooooooooo oo o oooo  o oooo ooooooo ooo    ooo o oo oooooo  ooo                                                                    o  o o  ooooooo                   oooooooooooo o  o  oooooo                    ",
"              oo o    o  o o ooo     o   o  o o oo oo o                                                                         o                                                                                             o       oo   o       oo                                                                                                                                                                                    oooooooo oooo o                                                                                                                            o                 o oooo                                      o                            oooo              o   o  o  o         o  o  oo o o   oooo  o                  o   o              o       o    o            ooo    o              o  o  o      o         o    o   o    o o  o       oo                                      o  o oo o   o oo         oooo            o     oo o    o    o                oo    o        o o oo    o        ",
"                                                                                                                                                                                                                                                                                                                                                                                                                                                                                                                                                                                                                                                                                                                                                                                                                                                                                      ooooooooooooo oo oo  o oo oo oo oooo oo      o o o  oo  oooo     ooo o  o oo            o o  ooo oooo                          o   o  oooo ooo   oo",
"                                                                                                                                                                                                                                                                                                                                                                                                                                                                                                                                                                                                                                                                                                                                                                                                                                                                                        o  o      oo oo  oo o        o        o  o          o     o                            o                                                     oo  ",
"                                       o                                                                                                                                                                                                                                                                                                                                                                                                                                                                                                                                                                                                                                                                                                                                                                                                                                                                                                                                                                                                 ",
"                                                                                                                                                                                                                                                                                                                                                                                                                                                                                                                                                                                                                                  ooooooooooooooooo  oo o                                                                                                                                                                                                                                                                                                                                                                                ",
"                                                                                                                                                                                                                                                                                              o    ooo                                                                                                                                                                                                                                                                                                                                                                                                                                                                                                                                                                                                                                                                                                                                   ",
"                          o  o o   o o  o  o           o     o                                                                                                                                                                    oo   o  o                 o                                                                                                                                 o                      o                                                                                                                                                                                                                                       o                                                                                                                                                                                                                                                                                                                                                                           ",
"  oo     oo        o                       o                 o                                                                                                                                                o                                                            o       ooo  o oooooo o ooo o o  o  o            ooo  o                                                                                                                                                                                                   o                                                                                      o    o                                                                                                                                                                                                                                                                                                                                                                                                       ",
"                                                                                                                                                                                                                                                                                 o                                   o                                                                                                                                                                                                                                                                                                 o                                                                                                                                                                                                                                                                                                                                                                                                                 ",
"                                                                                                                                                                                                                                                                                                                                                                                                                                         ooooooooooooooo                                                                                                                                               ooooo                                                                                                                                                                                                                                                                                                                                                                                                                             ",
"                                                                                                                                                                                                                                                                                                                                                                                                                                                                                                                                                                                                        ooo                                                                                                                                                                                                                                                                                                                                                                                                                              ",
"                                                                                          o                                                                                                                                                                                                                                               o                                               o                                               o                                                                                                                                                               o                                                                                                                                                                                                                                    o                                                                                                                                                                                         ",
"                                                                oo  o ooooooooooo oooo ooo oo o  oo o   ooooooooo oooooooo ooooo oooooo o o oo ooooooooo ooooooooooooo  ooooooooooooooooo ooooooooooooooo oo o oooooooooo oooo                                                                                                          oo          o                    o   o           o oo       o ooooooooooo    o oo        o   ooo      o    o       o oooooo   o oo  o oo ooo ooooooo  oooooo  o o ooo oooo oooooooo  ooooo     o oo ooooo   ooo oooooooooooooooooo oooooooooo ooooooo oooo     o     oo oo                                              oooooooo         o ooooooooooo oo ooo ooooooooooooooo ooooo  ooo ooo o  oooooooooooooooooooooooooooooooooooooooooooooooo ooooooooooooooooo oooooooooooooooooooooooooooooooooo oooooooooooooooo ooooooooooo ooooooo ooo                                                                  o o  o o   oooooo                  oooooooooooooooooooo ooooo     o              ",
"                                                                                                                                                                                                                                                                                                                                                     o      o o  ooooo        o  o   oooo                                                oo    o oo   o                                                                                                                                                                                                                                                                                                                                                                                                        o                                                                                              o   o                                                  o        o          ",
"                                                                                                                                                                                                                                                                                                                                                     ooooo o o oo  o ooo  o o  oo ooo                                                                                                                                                                                                                   oo o   o                                                                                                                                                                                                                                                                      o ooo ooooooo ooo o ooooo oo oo oooo oo o  o o      ooooooooo    o o oo   oo                 oo   ooo                                  o o  ooo  oo",
"                                                                                                                                                                                                                                                                                                                                                                                                                                                                                                                                                                                                                                                                                                                                                                                                                                                                                                                                                                                                                                o    o   ",
"                                                                                                                                                                                                                                                                                                                                                                                                                                                                                                                                                                                                                                                                         oooooooo              o           o      o        oo   o   o oo                                                     o            ooo                o                                                        oooooooooooooo oooooooooooooooooooooooooooooooo oo oooooooooooooo                  oooooooooooooooooo                            oo oooooo oooooooo",
"                                                                                                                                                                                                                                                         o         o  o  o                                                                                                                                                                                                                                                                                                                                                                                                                                                                                                                                                                                                                                                                                                                                                               ",
"                                                                                                                                                                                                                                                                                                                                                                                                                                                                                                                                                                                                                                                                                                                                                                                                                                                                                                                                                         o                                                                               ",
"                              o   o       o o ooo o        o                                                                                                                                                                                                                                                                                                                                                                                                                                                                                                                                                                                                                                                                                                                                                                                                                                                                                                                                                                             ",
"                                                                                                                                                                                                                                                                                                                    o                                                                                                                                                                                                                                                                                                                                                                                                                                                                                                                                                                                                                                                                                                                    ",
"ooooooooooooooooooooooooooooooooooooo oooooo ooooooooooooo oooooooooooooooooooooooooo ooooooooooooooooooooooooooooo ooooooooooooooooo ooooooo o oooo ooooooooooooooooo oo oooooooooooooooooooooo o oooo ooooooo ooooooooo oooooooooooooooooooooooooo ooooooooooooooooooooooooooooooooooooooo oooooooooooooo  ooooooo oooooooo ooooooooooo oo oooooooooooooooooooooo oooooooooooooooooo ooo o oooooooo o oooo   ooo oo oooo oooo ooooo oooooo ooooooooo ooo oooooooo oooooo oooooooooooooooooooo ooooooooooo  ooooooooooooooooooooooooooooooooooo ooo  oooo oooooooooooooooo  o ooooooooo oooooooooooooooooo ooooooooooooo ooooooooooooooo oooooo ooo oooooo oooooooooooooooooooooooooooooooooooooooooooooooooooooooo ooo ooooooooooooooooo ooooooooooooooooooooooooooooooooooooooooooooooooooooooooooooooooooooooooooooooooooo oooooooooooooooooooo ooooooooooooooooooooooooooooooooooooooooooooooooooooooooooooooooooooooooooooooooooooooooooooooooooo  oooooo o ooooooooooooooooooooooooooooooooooooooooo oooooooooooooooo  ooooooooooo",
"                                                                                                             o   o                                                                                                                                                                                                                                                                                                                                                                                                                                                                                                                                                                                                                                                                                                                                                                                                                                                                                                                       ",
"                                                                                                                                                                                                                                                          o                                                                                                                                                                                                                                                                                                                                                            ooo       o                                          o   oo  o  o                                                                                                                                                                                                                                                                                                                                                 ",
"                                                                                                                                                                         o                                                                                                                                                                                                                                                                                                                                                                                                                                                                                                                                                                                                                                                                                                                                                                                                                                                               ",
"                                                                                                                                                                                                                                                                                                                                                                                                                                                                                                                                                                                                                                                                                                                                                                                                                                                                                                                                                                                              o              o                           ",
"                                                                                                                                                                                                                                                                                                                                                                                                                                                                                                                                                                                                                                                                                                                                                                                                                                                                                                                                                                           o                                                             ",
"                                                                                                                                       o o                                                                                                                                                                                                                                                                                                                                                                                                                                                                                                                                                                                                                                                                                                                                                                                                                                                                                               ",
"                                                                                                                                                                                  o         o        o                          o                                                                                                                                                                                                                                                                                                                                                                                                                                                                                                                                                                                                                                                                                                                                                                                                        ",
"                                                                                                                                   o                                         o   o        oo      o     o      o                                                                                                                                  o                                                                                                                                                                                                      o       o      o                   o                                                                  o                                                                                                                                                                                                                                o                                                                                                                                        ",
"oooooooooooooooooooooooo ooooooooooooooooooooooooooooooooooooo ooooooooooooooooooooooooooooooooooooooooo ooo   ooooooooo ooooooooooooooooooooooooo  oo oooooooo  oooooooooooooo       oooo    oooo oo ooooooooo oo oooo oooooo   ooo o  ooooooooooooooooooo ooooooooooo  o  ooooooooooooooo    oo o ooo o   o oo o  o  o o oooooo ooo   oooooooooooooooooooooooooooooooooooooooooooooooooo ooooooooooooooooooooooo  oo o oooooo ooooooooooo o  o  ooo oo oooooooooooo o ooooooooo oo oo ooooo  oo ooooooooooooooooooooooooooooooooooooooooooooooo ooooooo ooooooo ooooo oo ooooooooo ooo  o ooo oooooooooo ooooooooooo oooooooooooooooooooooooooooooooooooooooo ooooooooooooooo                                                                                                                                                                                                                 o    oooooo    oooooooo oooo o oooooooo ooooo oo oooooooo ooo   oo   oo  o oooooo  oo ooo o                          ooooo oooooooooooooo",
"                                                                                                                                                                                                                                                                                                                                                                                                                                                                                                                                                                                                                                                                                                                                                                                                                                                                                                                                                                                                    o  o          o                      ",
" ooo                                                                                                                                                                                                                                                                                                                                                                                                                                                                                                                                                                                                                                                                                                                                                                                                                                                                                                                                                                                                                                     ",
"                                                                                                                                                                                                                       o                                                                                                                                                                                                                                                                                                                                                                                                                                                                                                                                                                                                                                                                                                                                                                        o                                        ",
"                                                                                                                                              o o oo       o  oo                                                                                                                                                                                                                                                                                                                                                                                                                                                                                                                                                                                                                                                                                                                                                                                                                                                                         ",
"                                                                                                                                                                                                                                               oooo                                                                                                                                                                                                                                 o                      oo oo  oo                                             oooooo oo o oooo ooo                                                                                                                                                                                                                                                                                                                                                                                                                                o                   ",
"                                                                                                                                                                                            o                                                                                                                                                                                                                                                                                                                                                                                                                                                                                                                                                                                                                                                                                                                                                                                                                                            ",
"                                                                                                              o                                                                oooo       oo o    o  o         o                o                                                                                                                                                                                                                                                                                                                        o    o  o        o         o   oo oo                         o    o  o                                o                                                                                                                                                                                                                                                                                                                                                                         ",
"         o o o o ooo ooo o ooo  o oooo     oo o o o   oo  oo o o  o o  ooooo o oooooo ooo  o o  ooooo o  oo     o  o o o o  o  ooo ooo o ooo oo oo  oo oo ooooo   oooo o oooo            o    oo   oo oo oo  o   oooooo   oooo    oo o     oooooo  oo  oooo oo  oo o o   o     o o   o  o o       o  oo     o oo             o o   o       o      oo  o o   oo  ooo o oo o oo  o  oooo   o    o oo  o oooo ooooooo   o     o  o oooo  o  o     o         o     oo       o  o  oo   o o   oo    oo    o o  o ooo ooo oooo oo oooo  o oo ooooooo o  ooooo o o o  oo ooooo  o ooo ooo o oo      oo  o ooo oo  o oo oooo o  ooo    ooo      o oo oooo ooo ooo ooo    ooooooo    o                                                                                                                                                                                                                                    oo        o    o       oo    o                            o       o                                  o         o      oo",
"o   oo  o   o     o    oo       o    o   o      o    o  oo    o       o     o o  o        o   ooo           o  o o  o o o    oo   o     ooo   o o oo  o        oo                                   o                  oo         ooo    o                 o   ooo     ooooooo  o o    oo             ooo  o    oo oo  oo ooo o ooo o  o  oo o  oo   o   o oo          o o  oo   o     oo o o o o oo o   o           o ooo o o o    oo oo oo ooooooo oooo  o o    o oooo oo     oo  oo o oo   oo oooo o    oo  o   o  o  o  o   o o  oo      o   o      o              o                              o o o o  o  o         oo     o                 o o      o             ooooooooo  o                                                                                                                                                                                                       ooo       o o   oo   ooo oo  o o    o o o  oo o  o o o    o oo   ooo   o  oo  o o oo     oo                             o ooo ooo oooo    ",
"                                                                                                                                                                                                                                                                                                                                                                                                                                                                                                                                                                                                                                                                                                                                                                                                                                                                                                                                                                                                       o                                 ",
"                                                                                                                                                                                                                                                                                                                                                                                                                                                                                                                                                                                                                                                                                                                                                                                                                                           ooooooooooooooooooooooooooooooooooooo                                                                                                                                                         ",
"                                                                                                                                                                                                                                                                                                                                                                                                                                                                                                                                                                                                                                                                                           o                     ooooo oooooo oooooo oooo o                                                                                                                                                                                                                                                                                              ",
"                                                                                                                                              o o oo       oooooo                                                                                                                                                                                                                                                                                                                                                                                                                                                                                                                                                                                                                                                                                                                                                                                                                                                                        ",
"                                                                                                                                                                                                                                                ooo                                                                                                                                                                                                                                                                                                              o    ooo  oo ooo   o          o                                                                                                                                                                                                                                                                                                                                                                                                                                         ",
"                                                                                                                                                                                                                                                                                                                                                                                                                                                                                                                                                                                                   oooo                                                                                                                                                                                                                                                                                                                                                                                                                                  ",
"                                                                                                                                                                                                                                                                                                                                                                                                                                                                                                                                                                                                  o                                                                                                                                                                                                                                                                                                                                                                                                                                      ",
"                                                                                                                                                                                                                                                                                                                                                                                                                                                                                                                                                                                                ooo oo                                                                                                                                                                                                                                                                                                                                                                                                                                   ",
"                            o                                                                                                                                                                                                                                                                                                                                                                                                                                                                                                                                                                                                                                                                                                                                                                                                                                                                                                                                                                                                            ",
"                                                                                                                                                                                                                              oooo o                                                                                                                                                                                                                                                                                                                                                                                                                                                                                                                                                                                                                                                                                                                                                                                                     ",
"                                                                                                                                                                                                                                                                                                                                                                                                                                                                                                                                                                                                        o                                                                                                                                                                                                                                                                                                                                                                                                                                ",
"                                                                               o                                                                                                                                                                                                                                                                                                                                                                                                                                                                                                                                                                                                                                                                                                                                                                                                                                                                                                                                                         ",
"                                  o                                             o                                                                                                                                                                                                                                                                                                                                                                                                                                                                                                                                                                                                                                                                                                                                                                                                                                                                                                                                                        ",
"                                                                                                                                                                                                                                                                                                                                                                                                                                                                                                                                          o                                                                                                                                                                                                                                                                                                                                                                                                                                                                                              ",
"                                              o ooo oo                       o                                                                                                                                                                                                                                                                                                                                                                                                                                                                                                                                                                                                                                                                                                                                                                                                                                                                                                                                                           ",
"                                                   o    o              oo                                                                                                                                                                                                                                                                                                                                                                                                                                                                                                                                                                                                                                                                                                                                                                                                                                                                                                                                                                ",
"                                                                                                                                                                                                                                                                                                                                                                                                                                                                                                                        o                                                                    o       o   o                                                                                                                                                                                                                                                                                                                                                                                                                               ",
"                                                                                                                                                                                                                                                                                           o o                                                                                                                   o                                                                                                                                                                                                                                                                                                                                                                                                                                                                                                                                                                                                                       ",
"                                                                                                                                                                                                                                                                                        o                                                                                                                  o                                                                                                                                                                                                                                                                                                                                                                                                                                                                                                                                                                                                                             ",
"                                                                                                                                                                                               o  o                                                                               o             o                                       oo       ooo    o    o o                   oo  ooo              ooo oo o     oooo                       oo            oooooooo  o   o   o o                              o                                                                                                                                                                                                                                                                                                                                                                                                                                                                                                                       ",
"                                                                                          o      o                                                                             o                                                                       o                                                                                                                                                           o                                                                                                     o                                                                                                                                                                                                                                                                                                                                                                                                                                                                                                               ",
"                                                                                                  o                                                                       o o   oo                                                           oo  o  o                                                                                                                                               oo             oo                                                                                                o   oo                                                                                                                                                                                                                                                                                                                                                                                                                                                                                                              ",
"                                                                                           o                                                                                                                                                                                                                                                                                                           o                                                                           o                                                                                                                                                                                                                                                                                                                                                                                                                                                                                                                                                     ",
"                                                                                                                                                                                                                                                                                                                                                                                                                                                                                                                                                                                               oo  o                                                                                                                                                                                                                                                                                                                                                                                                                                     ",
"                                                                                                                                                                                                                        o      o             o o o   o                                                                                                                                                                                                                                                                                                                                                                                                                                                                                                                                                                                                                                                                                                                                                                                   ",
"                                                                                                                                                                                          o                                                                    o                                                                                                                                                                                                                                                                                                                                                                                                                                                                                                                                                                                                                                                                                                                                                                         ",
"                                                                                                                                                                                          ooooo     o                                                              o                                         o                                                                                                                                                                                                    o                                                                                                                                                                                                                                                                                                                                                                                                                                                                                                                      ",
"                                                                                                                                                                                                                                                                                                                                                                                                              o                                                                                                                                                                                                                                                                                                                                                                                                                                                                                                                                                                                                                          ",
"                                                                           o                                                                                                                                                                                                                                                                                                                                                                                                                                                                                                                                                                                                                                                                                                                                                                                                                                                                                                                                                             ",
"                                                                                                                                                                                                                                                                                                                                                                                                     o                                                                                                  o                                                                                                                                                                                                                                                                                                                                                                                                                                                                                                                                ",
"                                                                                                                                                                                                                                                                                                                                                o                                                                                                                                                                                                                                                                                                                                                                                                                                                                                                                                                                                                                                                                                        ",
"                                                                                                                                                                                                                                                                       oo oo oooo oooo      ooooo ooo  oo     o              o   oo oo o o oo ooooo oooooo ooo ooooooo  o ooo oo o oooo  o o   oooooo  oooooo  o  o   o o o  oo  o o    o  ooo ooo o oooo o o oooo o oooooooooo oooo ooo o  oo  o o         ooo o                            o oooo                                                                                                                                                                                                                                                                                                                                                                                                                                                                                      ",
"                                                                                                                                                                                                                                             o                                                                                                                                                                                                                                                                                                                                                                                                                                                                                                                                                                                                                                                                                                                                                                                           ",
"                                                                                                                                                                                          ooooo   ooo         o                                                                                                                                                                                                                                                                                                                                                                                                                                                                                                                                                                                                                                                                                                                                                                                                                          ",
"                                                                                                                                                                                                oo o                                                                                                                           o                                                                                                                                                                                                                                                                                                                                                                                                                                                                                                                                                                                                                                                                                                         ",
"                                                                                                                                                                                                                                                                             oo                    oo                                o   o    ooo                         oo                     o   o                       o                                                                          o      oo                             o  o                  oo                                                                                                                                                                                                                                                                                                                                                                                                                                                                   ",
"                                                                                                                                                                                                                                                                                                                                                                                                                                                                                             o                                                                                                                                                                                                                                                                                                                                                                                                                                                                                                                                           ",
"                                                                                                                                                                                                                                                                                                                                                                                                                                                                                                                                                                                                                  o                                                                                                                                                                                                                                                                                                                                                                                                                      ",
"                                                                                                                                                       o                                                                                                                                                                                                                                                                                                                                                                                                                                                                                                                                                                                                                                                                                                                                                                                                                                                                                 ",
"                                                                                                                                                   o                                                                                                                                                                                                                                                                                                                                                                                                                                                                                                                                                                                                                                                                                                                                                                                                                                                                                     ",
"                       o                                                                                                                                                                                                              o                                                                                                                                                                                                                                                                                                                                                                                                                  o   o  oo    o                                                                                                                                                                                                                 o      o o              o          o                               o   o                                                                         ",
"                                                                                                                      oo                                                                                            ooooo o    oooo oooo                                                                                                                                                                                                                                                                                                                                                                                                                                                                                                                                                                                                                                                oooooooooooooooooooo oooo  ooooooo o ooooo  ooooooo  oooooooo ooooo oo oooooooo                                                                  ",
"    o ooooooo  oooooooooooooooooooooooooooooooooooooo oo  oooooo o        o       oooo ooo oo oo o o oooooo oooooo ooo  o oo        oo                                                                                                                                                                                                                                                                                                                                                                                                                                                                                       ooooooooo oo ooooo   o  o o ooo oo ooo oooo  oo  o   o                                                                                                                                                                                                                                                                                                                                                      ",
"                                                                                                                                                                                           o o                                                                                                                                                                                                                                                                                            o                                                                                                                                                                                                                                                                                                                                                                                                                                                                                                                                              ",
"o      oo   o   o  ooo              oooo                     oo            o o  o o          oooo  o            oo o o  o o ooo o o o oo o o                                                                            oo   ooo         oo          o                                                                                                                                                                                                                                           o             o      o o                                                                                                                                                                              ooo o    o    o o    o          oo oo  oo ooo   o o  oo  oo  o oooooo  oo  o oo   oo      oo oooooo o   o o o ooooo   o            o         o                          oo  oo                           o                                ooo   o o o oooo   o   oo  o      o   oo oo   o           o oo        oo  oo           o",
"o ooooo o ooo o oooooo oooooooo ooooo   o oooo ooo o oo   oooooo    o  o  o o    ooo  o oo o      ooooo oooo oooo o ooo oooo o o o   o  o o  oo                                                                        o   oo   o ooo ooo oooo oo ooo ooooooooooooo oooooo  o ooo                                                                                                                                                          o  oo ooo o oooooooooo oo oo  oooooo o  oooooooooooooo ooooo  oooooo oooooo oo o  ooo ooooooooo o  oo oooo oooo o oo o  o oooo ooooo                  o        ooo oo o  oo    oo ooooo   o   o  oo   oo   o    oo  oo  o   oooo    oo  o  oooo o   o  oooooo  o oooo oo o o oooo oo oooo  o oo                                                                                          o oooo o     o o ooooooooooo oooooo oooo ooo oo oooooooo o oooo oo o oo o oo  oo oooo  oooo   oooooo  ooooooo o ooooo o ooo  ooo ooo ooooo oooooooooo  oooooooooooooooooo ooooooooo   o ooo  oooo ooo",
"             o o               o o       o    o        o o      o oo  o o            o    o      o     o    o                      o           o                                                                                                                          oo o                                                                                                                                                                        o             o  o          o                     o                                 o  o  o         o o    oo      o       o oo  oooo          o   o         o    oo                o    oo   oo   oo  o   oo ooo    oo oo o  o                    o                          o  o                                                                                                  o oo                              o   o                                o  o     o                        o     o o   o        o     o           o                  o         ooo o   oo        ",
"oooooo oooo oooooooo ooooooooooooo ooooooo oooooooooooooooooooo ooo ooooo ooooooooooooooooooooooooooooooooooo ooooooooo oooo oo     oo ooooooooo ooooooooooooooo ooooooooooooooo oooooooo ooo ooooooooooooooooooo oooooooooooooooooooooo oooooooooo ooooo oo  oooooooooooooo oooooooooooooooooooo  ooooooooooo ooooooooooooooooooo o ooooooooooooooooooooooooooooooooooooooooooooooooooooooooooooo oooooooooooooooooooooooooooooooo oooooooooooooooooooooooooo oooo oooooooooooooo o oooo ooooooooooo oo ooooooooooooooooo ooooooooooooooooo  o ooooooo oooo oooo  ooooooooooooo                 oo  oooo oooooooooo oooooooooo  ooooooo ooooooo ooo    ooooooooo oo  oooooo ooo oo   oo o    o o ooo oo ooo oooooooooooo ooo   oo o ooooooooooo ooooooooooo  oo  oo  oooooooooooooo oooooooooooo  oooooo   ooo ooooo oo oo ooo  o oooo oo oooooooooooooooooooooooooooooo ooooooooo oooooooooo ooooooooooooooooooooo   ooooooooooooo oooo o oo oooooooo  o  oo oooooooooooooooooooo ooooooo ooooooooooooooooooooooooooooooooo ooooooooooo",
"                                                                                                                                                                                                                                                                                                                                                                                                                                                                                                                                                                                                                                                                                                                                                                                                                                                                                                                                                        oo o  oo                                                                         ",
"                                                                                                                                                                                                                                                                                                                                                                                                                                                                                                                                                                                                                                                                                                                                                                                                                                                                                                                                                                 ooo oooo ooooooo oooooooooooooo ooooo  o oooooooooooooooooooo ooooooo oo",
"                                                                                                                                                                                                                                                                                                                                                                                                                                                                                                                                                                                                                                                                                                                                                                                                                                                                                                                                    o             oo o               oo oo oo o  o ooo oooooooooo  oooo oo  oooooooooooo   o  o   o ooo o",
"                                                                                                                                                                                                                                                                                                                                                                                                                                                                                                                                                                                                                                                                                                                                                                                           o                                                                                                                                                                                                                                             ",
"                                                                                                                                                                                                                                                                                                                                                                                                                                                                                                                                                                                                                                                                                                                                                     o o o  o                o                                                                                                                                                                                                                                                           ",
"                                                                                                                                                                                                                                                                                                                                                                                                                                                                                                                                                                                                                                                                                                                                                      o                                                                                                                                                                                                                                                                                  ",
"                                                                                                                                                                                                                                                                                                                                                                                                                                                                                                                                                                                                                                                                                                                                                             oo o                                                 oo oooo                             o   o                                                                                                                                                                              ",
"                                                                                                                                                                                                                                                                                                                                                                                                                                                                                                                                                                                                                                                                                                                                                                                            o                                         o                                                                                           o          o                            o     o                                         o              ",
"                                                                                                                                                                                                                                                                                                                                                                                                                                                                                                                                                                                                                                                                                                                                                                                                                                                                                                                        o                                                                                                                ",
"                                                                                                                                                                                                                                                                                                                                                                                                                                                                                                                                                                                                                                                                                                                                                                                                                                                                                                        oo  ooooooooo oooooooooooooooooooooooooooooooooooooooooooooooooooo oo oooooooooooooooooooooooooooooooo oooooooooooooooooooooooo o",
"                                                                                                                                                                                                                                                                                                                                                                                                                                                                                                                                                                                                                                                                                                                                                                                                                                                                                                        oo oo                                                                                                                            ",
"                                                                                                                                                                                                                                                                                                                                                                                                                                                                                                                                                                                                                                                                                                                                                                                                                                                                                                                                                                        o        o           o  o     o              o                   ",
"                                                                                                                                                                                                                                                                                                                                                                                                                                                                                                                                                                                                                                                                                                                                                                                                                                                                                                                         ooooooooooooooooooooooooooooooooo           oooooooooooooooooo o ooo oo ooooooo  oo o oooo o ooooooooooooo ooooo",
"                                                                                                                                                                                                                                                           o                                                                                                                                                                                                                                                                                                                                                                                                                                                                    o                                                                                                                                                                                                                                                                                                        ",
"                                                                                                                                                                                                                                                                                                                                                                                                                                                                                                                                                                                                                                                                                                                                                       ooo o                                                                                                                                                                                                                                                                             ",
"                                                                                                                                                                                                                                                                                                                                                                                                                                                                                                                                                                                                                                                                                                                                                     oo   oo                                                                                                                                                                                                                                                                             ",
"                                                                                                                                                                                                                                                                                                                                                                                                                                                                                                                                                                                                                                                                                                                                                                                                                                                                                                                         ooooooooooooo ooooooooooo o  o  ooo   oo oo o  oo  oooo  o oo oo    o o o o  o oo o oo  oo  o  oo oo oo     ooo ",
"                                                                                                                                                                                                                                                                                                                                                                                                                                                                                                                                                                                                                                                                                                                                                                                                                                                                                                           o   o                                                                                                                         ",
"                                                                                                                                                                                                                                                                                                                                                                                                                                                                                                                                                                                                                                                                                                                                                                                                                                                                                                                              o                   o  o  o     o     o     oo     o o  o     o o o o o     o        o   o  o  o  ooo     o",
"                                                                                                                                                                                                                                                                                                                                                                                                                                                                                                                                                                                                                                                                                                                                                                                                                                                                                                                  o    oo o       oo     oo  o                                                                                           ",
"                                                                                                                                                                                                                                                                                                                                                                                                                                                                                                                                                                                                                                                                                                                                                                                                                                                                                                           o         o   o o o ooo  ooooo  oo oooo                                                                                       ",
"                                                                                                                                                                                                                                                                                                                                                                                                                                                                                                                                                                                                                                                                                                                  o oo                                                                                                                                                                                                                                                                                                                   ",
"                                                                                                                                                                                                                                                                                                                                                                                                                                                                                                                                                                                                                                                                                                              o oo o                                                                                                                                                                                                                                                                                                                     ",
"                                                                                                                                                                                                                                                                                                                                                                                                                                                                                                                                                                                                                                                                                                                                                                                                                                                  o o                                                                                                                                                                                    "
